!!!OTL: Soldatenleben (149), S. 329
!!!id: T0318
**kern
*clefG2
*k[b-]
*F:
{8c
=1
4f
8f
4a
16f
16a
=2
4cc
8cc
4a}
=3
{16f
16cc
16cc
16cc
16f
=4
4cc
8cc
8cc
8b-
8cc
=5
4.a}
=6
{4.cc
=7
8a
8cc
8cc
8dd
8cc
8cc
=8
4.dd
8dd
8cc}
=9
{8b-
=10
4b-
8b-
8a
8g
8f
=11
4cc
8dd
4cc}
=12
{8f
=13
8a
8a
8a
8a
8g
8a
=14
4.cc}
=15
{4.dd
=16
8cc
8dd
8cc
8cc
8b-
8b-
=17
4.a}
4r
==
*-
!!!minrhy: 16
!!!meters: 6/8 ]  ZZ[6
!!!cut: Soldatenleben (149), S. 329
!!!reg: Luxemburg
!!!trd: Singendes Volk, Esch-Alzette 1937, posth.
!!!rhy1: X_  X__X_X__XX  X__X_X__
!!!rhy2: (XXX)  X__X_X_X_X_  X__.
!!!key: T0318  16  F 6/8 ]  ZZ[6
!!!mod: SECHSTONSKALA DUR ?]  AMBITUS[9
!!!kad: 335553
!!!akz: 1353_553_53666_4355_335_6553_
!!!fot: 'a__b__c__d__e__f__
!!!for: 'a__b__c__bw_cw_cw_
!!!fok: '^a_\__V__Va_/__\__
!! PHRAS[AUFTAKTIG]
!!!fkt: historische, Kriegs- und Soldatenlieder
!!!bem: Heffingen, hhh Nikolaus Ewen, 2.6.1935
!! THILL, Mathias:
!! PR[46] 2K[6] 2G[6] 3K[4] 3G[2] 4A[8] 4Ü[0] 5A[0] 6K[0] 6G[0]
!! 7K[0] 7G[0] 8A[0] MEHR[0] SI[26] ABS[50] SR[12] SP[14]
!! ST[16] 2k[4] 2g[10] 3k[6] 3g[0] 4d[8] 4ü[0] 5d[0] 6k[0] 6g[0]
!! 7k[0] 7g[0] 8d[0] mehr[0] si[28] dm[-2] sr[14] sp[14]
!! 1F[84] 2F[16] 3F[0] 4F[0] LF[0] 2P[0] 3P[0] 4P[0] TRI[0] DF[2] AB[55]
!! TF[0] U3K[0] U3[0] U4[0] U4Ü[0] U5[0] U6K[0] U6[0] U7K[0] U7[2]
!! N1[2] N2K[0] N2[27] N3K[0] N3[27] N4[6] N4Ü[0] N5[29] N6K[0] N6[6]
!!!n7k: 0] N7[0] O1[0] O2K[0] O2[0] O3K[0] O3[0] HÖ[0
